packages/icons/src/stopwatch.svg

<svg width="15" height="15" viewBox="0 0 15 15" fill="none" xmlns="http://www.w3.org/2000/svg">
  <path
    fill-rule="evenodd"
    clip-rule="evenodd"
    d="M5.49998 0.5C5.49998 0.223858 5.72383 0 5.99998 0H7.49998H8.99998C9.27612 0 9.49998 0.223858 9.49998 0.5C9.49998 0.776142 9.27612 1 8.99998 1H7.99998V2.11922C9.09832 2.20409 10.119 2.56622 10.992 3.13572C11.0116 3.10851 11.0336 3.08252 11.058 3.05806L11.858 2.25806C12.1021 2.01398 12.4978 2.01398 12.7419 2.25806C12.986 2.50214 12.986 2.89786 12.7419 3.14194L11.967 3.91682C13.1595 5.07925 13.9 6.70314 13.9 8.49998C13.9 12.0346 11.0346 14.9 7.49998 14.9C3.96535 14.9 1.09998 12.0346 1.09998 8.49998C1.09998 5.13362 3.69904 2.3743 6.99998 2.11922V1H5.99998C5.72383 1 5.49998 0.776142 5.49998 0.5ZM2.09998 8.49998C2.09998 5.51764 4.51764 3.09998 7.49998 3.09998C10.4823 3.09998 12.9 5.51764 12.9 8.49998C12.9 11.4823 10.4823 13.9 7.49998 13.9C4.51764 13.9 2.09998 11.4823 2.09998 8.49998ZM7.99998 4.5C7.99998 4.22386 7.77612 4 7.49998 4C7.22383 4 6.99998 4.22386 6.99998 4.5V9.5C6.99998 9.77614 7.22383 10 7.49998 10C7.77612 10 7.99998 9.77614 7.99998 9.5V4.5Z"
    fill="currentColor"
  />
</svg>

<svg xmlns="http://www.w3.org/2000/svg" width="15" height="15" fill="none"><path fill="currentColor" fill-rule="evenodd" d="M5.5.5A.5.5 0 0 1 6 0h3a.5.5 0 0 1 0 1H8v1.12a6.36 6.36 0 0 1 2.992 1.016 1 1 0 0 1 .066-.078l.8-.8a.625.625 0 0 1 .884.884l-.775.775A6.4 6.4 0 1 1 7 2.119V1H6a.5.5 0 0 1-.5-.5m-3.4 8a5.4 5.4 0 1 1 10.8 0 5.4 5.4 0 0 1-10.8 0m5.9-4a.5.5 0 0 0-1 0v5a.5.5 0 1 0 1 0z" clip-rule="evenodd"/></svg>
